X:1
T:Fair Fanny Moore
M:2/4
L:1/8
K:D
 AA| dd A3/2 A/2|A-G F D/2D/2| EE F3/2 E/2| D2 AA| dd AA|A-G F D/2D/2|\
 EE FE| D2||
